other/halma.svg

<svg viewBox="0 0 48 48" xmlns="http://www.w3.org/2000/svg">
    <style>
        .a{fill:none;stroke:#FFFFFF;stroke-linecap:round;stroke-linejoin:round}
    </style>
    <path class="a" d="M30.2800293,13.1199951c-2,1.1600342-3.1300049,3.2700195-3.1400146,5.4299927 C26.2199707,19.0999756,25.1500244,19.4000244,24,19.4000244s-2.2199707-0.3000488-3.1400146-0.8500366 c-1.8800049-1.0800171-3.1400146-3.0999756-3.1400146-5.4299927L24,2.5L30.2800293,13.1199951z"/>
    <path class="a" d="M20.8599854,18.5499878c0,1.0700073-0.2699585,2.1600342-0.8399658,3.1500244 S18.6400146,23.4699707,17.7199707,24c-1.8799438,1.0800171-4.2699585,1.1599731-6.2799683,0L5.3800049,13.25l12.3399658-0.1300049 C17.7199707,15.4500122,18.9799805,17.4699707,20.8599854,18.5499878z"/>
    <path class="a" d="M20.8599854,29.4500122c-0.0100098,2.1599731-1.1400146,4.2699585-3.1400146,5.4299927L5.3800049,34.75 L11.4400024,24c2.0100098,1.1599731,4.4000244,1.0800171,6.2799683,0c0.9200439,0.5300293,1.7300415,1.3099976,2.3000488,2.2999878 S20.8599854,28.3800049,20.8599854,29.4500122z"/>
    <path class="a" d="M30.2800293,34.8800049L24,45.5l-6.2800293-10.6199951c2-1.1600342,3.1300049-3.2700195,3.1400146-5.4299927 C21.7800293,28.9000244,22.8499756,28.5999756,24,28.5999756s2.2199707,0.3000488,3.1400146,0.8500366 C29.0200195,30.5300293,30.2800293,32.5499878,30.2800293,34.8800049z"/>
    <path class="a" d="M42.6199951,13.25L36.5599976,24c-2.0100098-1.1599731-4.4000244-1.0800171-6.2799683,0 c-0.9200439-0.5300293-1.7300415-1.3099976-2.3000488-2.2999878s-0.8399658-2.0800171-0.8399658-3.1500244 c0.0100098-2.1599731,1.1400146-4.2699585,3.1400146-5.4299927L42.6199951,13.25z"/>
    <path class="a" d="M42.6199951,34.75l-12.3399658,0.1300049c0-2.3300171-1.2600098-4.3499756-3.1400146-5.4299927 c0-1.0700073,0.2699585-2.1600342,0.8399658-3.1500244S29.3599854,24.5300293,30.2800293,24 c1.8799438-1.0800171,4.2699585-1.1599731,6.2799683,0L42.6199951,34.75z"/>
</svg>

<?xml version="1.0" encoding="UTF-8"?><svg id="Layer_2" xmlns="http://www.w3.org/2000/svg" viewBox="0 0 48 48"><defs><style>.cls-1{fill:none;stroke:#fff;stroke-linecap:round;stroke-linejoin:round;}</style></defs><path class="cls-1" d="m30.28,13.12c-2,1.16-3.13,3.27-3.14,5.43-.92.55-1.99.85-3.14.85s-2.22-.3-3.14-.85c-1.88-1.08-3.14-3.1-3.14-5.43l6.28-10.62,6.28,10.62Z"/><path class="cls-1" d="m20.86,18.55c0,1.07-.27,2.16-.84,3.15s-1.38,1.77-2.3,2.3c-1.8799,1.08-4.27,1.16-6.28,0l-6.06-10.75,12.34-.13c0,2.33,1.26,4.35,3.14,5.43Z"/><path class="cls-1" d="m20.86,29.45c-.01,2.16-1.14,4.27-3.14,5.43l-12.34-.13,6.06-10.75c2.01,1.16,4.4,1.08,6.28,0,.92.53,1.73,1.31,2.3,2.3s.84,2.08.84,3.15Z"/><path class="cls-1" d="m30.28,34.88l-6.28,10.62-6.28-10.62c2-1.16,3.13-3.27,3.14-5.43.92-.55,1.99-.85,3.14-.85s2.22.3,3.14.85c1.88,1.08,3.14,3.1,3.14,5.43Z"/><path class="cls-1" d="m42.62,13.25l-6.06,10.75c-2.01-1.16-4.4-1.08-6.28,0-.92-.53-1.73-1.31-2.3-2.3s-.84-2.08-.84-3.15c.01-2.16,1.14-4.27,3.14-5.43l12.34.13Z"/><path class="cls-1" d="m42.62,34.75l-12.34.13c0-2.33-1.26-4.35-3.14-5.43,0-1.07.27-2.16.84-3.15s1.38-1.77,2.3-2.3c1.8799-1.08,4.27-1.16,6.28,0l6.06,10.75Z"/></svg>
